icon/cg/view-grid.svg

<svg viewBox="0 0 24 24" fill="none" xmlns="http://www.w3.org/2000/svg" height="1em" width="1em">
  <path fill-rule="evenodd" clip-rule="evenodd" d="M5 5C3.34315 5 2 6.34315 2 8V16C2 17.6569 3.34315 19 5 19H19C20.6569 19 22 17.6569 22 16V8C22 6.34315 20.6569 5 19 5H5ZM8 7H5C4.44772 7 4 7.44772 4 8V9H8V7ZM10 7V9H14V7H10ZM16 7V9H20V8C20 7.44771 19.5523 7 19 7H16ZM14 11H10V13H14V11ZM16 13V11H20V13H16ZM14 15H10V17H14V15ZM16 17V15H20V16C20 16.5523 19.5523 17 19 17H16ZM8 17V15H4V16C4 16.5523 4.44772 17 5 17H8ZM8 13V11H4V13H8Z" fill="currentColor"/>
</svg>

<svg width="24" height="24" fill="none" xmlns="http://www.w3.org/2000/svg"><path fill-rule="evenodd" clip-rule="evenodd" d="M5 5a3 3 0 0 0-3 3v8a3 3 0 0 0 3 3h14a3 3 0 0 0 3-3V8a3 3 0 0 0-3-3H5Zm3 2H5a1 1 0 0 0-1 1v1h4V7Zm2 0v2h4V7h-4Zm6 0v2h4V8a1 1 0 0 0-1-1h-3Zm-2 4h-4v2h4v-2Zm2 2v-2h4v2h-4Zm-2 2h-4v2h4v-2Zm2 2v-2h4v1a1 1 0 0 1-1 1h-3Zm-8 0v-2H4v1a1 1 0 0 0 1 1h3Zm0-4v-2H4v2h4Z" fill="currentColor"/></svg>
